src/material_cursors/col-resize.svg

<svg xmlns="http://www.w3.org/2000/svg" id="svg5327" width="32" height="32" version="1.1">
 <defs id="defs5329">
  <filter id="filter923" style="color-interpolation-filters:sRGB" width="1.32" height="1.056" x="-.16" y="-.03">
   <feGaussianBlur id="feGaussianBlur925" stdDeviation=".2"/>
  </filter>
  <filter id="filter951" style="color-interpolation-filters:sRGB" width="1.102" height="1.091" x="-.05" y="-.04">
   <feGaussianBlur id="feGaussianBlur953" stdDeviation=".17"/>
  </filter>
  <filter id="filter971" style="color-interpolation-filters:sRGB" width="1.102" height="1.091" x="-.05" y="-.04">
   <feGaussianBlur id="feGaussianBlur973" stdDeviation=".17"/>
  </filter>
 </defs>
 <path id="path901" style="opacity:0.3;fill:#000000;fill-opacity:1;stroke:none;stroke-width:1.99936354;stroke-linecap:round;stroke-linejoin:round;stroke-miterlimit:4;stroke-dasharray:none;stroke-dashoffset:0;stroke-opacity:1;paint-order:normal;filter:url(#filter923)" d="m 14.001909,25 c -0.026,0.2758 0.2232,0.5 0.5,0.5 h 1.998 c 0.2768,0 0.5,-0.223 0.5,-0.5 V 16.5 9 c 0,-0.277 -0.2232,-0.5 -0.5,-0.5 h -1.998 c -0.2768,0 -0.5263,0.2242 -0.5,0.5 v 7.5 z"/>
 <path id="path903" style="opacity:0.3;fill:#000000;fill-opacity:1;stroke-width:0.26513442;filter:url(#filter951)" d="m 19.127299,20.9509 c 0.2822,0.5197 0.9345,0.7037 1.4449,0.4076 l 5.9027,-3.4275 c 0.6998,-0.4062 0.7002,-1.4214 7e-4,-1.8272 l -5.8756,-3.4691 c -0.7027,-0.4014 -1.6002,0.1462 -1.6,0.959 v 6.852 c 6e-4,0.1763 0.044,0.3506 0.129,0.5054 z"/>
 <path id="path905" style="opacity:0.3;fill:#000000;fill-opacity:1;stroke-width:0.26513442;filter:url(#filter971)" d="m 11.874687,20.9509 c -0.2822,0.5197 -0.9345,0.7037 -1.4449,0.4076 l -5.9027,-3.4275 c -0.6998,-0.4062 -0.7002,-1.4214 -7e-4,-1.8272 l 5.8756,-3.4691 c 0.7027,-0.4014 1.6002,0.1462 1.6,0.959 v 6.852 c -6e-4,0.1763 -0.044,0.3506 -0.129,0.5054 z"/>
 <path id="path829" style="opacity:0.75;fill:none;fill-opacity:1;stroke:#010101;stroke-width:2;stroke-linecap:round;stroke-linejoin:round;stroke-miterlimit:4;stroke-dasharray:none;stroke-dashoffset:0;stroke-opacity:1;paint-order:normal" d="M 14.501953 8 C 14.225153 8 13.975653 8.2242 14.001953 8.5 L 14.001953 16 L 14.001953 24.5 C 13.975953 24.7758 14.225153 25 14.501953 25 L 16.5 25 C 16.7768 25 17 24.777 17 24.5 L 17 16 L 17 8.5 C 17 8.223 16.7768 8 16.5 8 L 14.501953 8 z M 10.949219 12 C 10.766264 11.992409 10.578019 12.034416 10.402344 12.134766 L 4.5273438 15.603516 C 3.8278438 16.009316 3.8275438 17.025441 4.5273438 17.431641 L 10.429688 20.859375 C 10.940088 21.155475 11.5928 20.970872 11.875 20.451172 L 11.873047 20.451172 C 11.958047 20.296372 12.001353 20.121613 12.001953 19.945312 L 12.001953 13.09375 C 12.002103 12.48415 11.498083 12.022772 10.949219 12 z M 20.052734 12 C 19.50387 12.022772 18.99985 12.48415 19 13.09375 L 19 19.945312 C 19.0006 20.121613 19.043906 20.296372 19.128906 20.451172 L 19.126953 20.451172 C 19.409153 20.970872 20.061866 21.155475 20.572266 20.859375 L 26.474609 17.431641 C 27.174409 17.025441 27.176063 16.009316 26.476562 15.603516 L 20.599609 12.134766 C 20.423934 12.034416 20.235689 11.992409 20.052734 12 z"/>
 <path id="rect825" style="opacity:1;fill:#526d78;fill-opacity:1;stroke:none;stroke-width:1.99936354;stroke-linecap:round;stroke-linejoin:round;stroke-miterlimit:4;stroke-dasharray:none;stroke-dashoffset:0;stroke-opacity:1;paint-order:normal" d="m 14.001909,24.5 c -0.026,0.2758 0.2232,0.5 0.5,0.5 h 1.998 c 0.2768,0 0.5,-0.223 0.5,-0.5 V 16 8.5 c 0,-0.277 -0.2232,-0.5 -0.5,-0.5 h -1.998 c -0.2768,0 -0.5263,0.2242 -0.5,0.5 V 16 Z"/>
 <path id="path832" style="opacity:0.25;fill:#000000;fill-opacity:1;stroke:none;stroke-width:1.99936354;stroke-linecap:round;stroke-linejoin:round;stroke-miterlimit:4;stroke-dasharray:none;stroke-dashoffset:0;stroke-opacity:1;paint-order:normal" d="m 14.001909,24.5 c -0.026,0.2758 0.2232,0.5 0.5,0.5 h 1.998 c 0.2768,0 0.5,-0.223 0.5,-0.5 V 16 8.5 c 0,-0.277 -0.2232,-0.5 -0.5,-0.5 h -1.998 c -0.2768,0 -0.5263,0.2242 -0.5,0.5 V 16 Z"/>
 <path id="path840" style="fill:#526d78;fill-opacity:1;stroke-width:0.26513442" d="m 19.127299,20.4509 c 0.2822,0.5197 0.9345,0.7037 1.4449,0.4076 l 5.9027,-3.4275 c 0.6998,-0.4062 0.7002,-1.4214 7e-4,-1.8272 l -5.8756,-3.4691 c -0.7027,-0.4014 -1.6002,0.1462 -1.6,0.959 v 6.852 c 6e-4,0.1763 0.044,0.3506 0.129,0.5054 z"/>
 <path id="path852" style="fill:#526d78;fill-opacity:1;stroke-width:0.26513442" d="m 11.874687,20.4509 c -0.2822,0.5197 -0.9345,0.7037 -1.4449,0.4076 l -5.9027,-3.4275 c -0.6998,-0.4062 -0.7002,-1.4214 -7e-4,-1.8272 l 5.8756,-3.4691 c 0.7027,-0.4014 1.6002,0.1462 1.6,0.959 v 6.852 c -6e-4,0.1763 -0.044,0.3506 -0.129,0.5054 z"/>
</svg>

<svg xmlns="http://www.w3.org/2000/svg" id="svg5327" width="32" height="32" version="1.1">
 <defs id="defs5329">
  <filter id="filter923" style="color-interpolation-filters:sRGB" width="1.32" height="1.056" x="-.16" y="-.03">
   <feGaussianBlur id="feGaussianBlur925" stdDeviation=".2"/>
  </filter>
  <filter id="filter951" style="color-interpolation-filters:sRGB" width="1.102" height="1.091" x="-.05" y="-.04">
   <feGaussianBlur id="feGaussianBlur953" stdDeviation=".17"/>
  </filter>
  <filter id="filter971" style="color-interpolation-filters:sRGB" width="1.102" height="1.091" x="-.05" y="-.04">
   <feGaussianBlur id="feGaussianBlur973" stdDeviation=".17"/>
  </filter>
 </defs>
 <path id="path901" style="opacity:0.3;fill:#000000;fill-opacity:1;stroke:none;stroke-width:1.99936354;stroke-linecap:round;stroke-linejoin:round;stroke-miterlimit:4;stroke-dasharray:none;stroke-dashoffset:0;stroke-opacity:1;paint-order:normal;filter:url(#filter923)" d="m 14.001909,25 c -0.026,0.2758 0.2232,0.5 0.5,0.5 h 1.998 c 0.2768,0 0.5,-0.223 0.5,-0.5 V 16.5 9 c 0,-0.277 -0.2232,-0.5 -0.5,-0.5 h -1.998 c -0.2768,0 -0.5263,0.2242 -0.5,0.5 v 7.5 z"/>
 <path id="path903" style="opacity:0.3;fill:#000000;fill-opacity:1;stroke-width:0.26513442;filter:url(#filter951)" d="m 19.127299,20.9509 c 0.2822,0.5197 0.9345,0.7037 1.4449,0.4076 l 5.9027,-3.4275 c 0.6998,-0.4062 0.7002,-1.4214 7e-4,-1.8272 l -5.8756,-3.4691 c -0.7027,-0.4014 -1.6002,0.1462 -1.6,0.959 v 6.852 c 6e-4,0.1763 0.044,0.3506 0.129,0.5054 z"/>
 <path id="path905" style="opacity:0.3;fill:#000000;fill-opacity:1;stroke-width:0.26513442;filter:url(#filter971)" d="m 11.874687,20.9509 c -0.2822,0.5197 -0.9345,0.7037 -1.4449,0.4076 l -5.9027,-3.4275 c -0.6998,-0.4062 -0.7002,-1.4214 -7e-4,-1.8272 l 5.8756,-3.4691 c 0.7027,-0.4014 1.6002,0.1462 1.6,0.959 v 6.852 c -6e-4,0.1763 -0.044,0.3506 -0.129,0.5054 z"/>
 <path id="rect825" style="opacity:1;fill:#526d78;fill-opacity:1;stroke:none;stroke-width:1.99936354;stroke-linecap:round;stroke-linejoin:round;stroke-miterlimit:4;stroke-dasharray:none;stroke-dashoffset:0;stroke-opacity:1;paint-order:normal" d="m 14.001909,24.5 c -0.026,0.2758 0.2232,0.5 0.5,0.5 h 1.998 c 0.2768,0 0.5,-0.223 0.5,-0.5 V 16 8.5 c 0,-0.277 -0.2232,-0.5 -0.5,-0.5 h -1.998 c -0.2768,0 -0.5263,0.2242 -0.5,0.5 V 16 Z"/>
 <path id="path832" style="opacity:0.25;fill:#000000;fill-opacity:1;stroke:none;stroke-width:1.99936354;stroke-linecap:round;stroke-linejoin:round;stroke-miterlimit:4;stroke-dasharray:none;stroke-dashoffset:0;stroke-opacity:1;paint-order:normal" d="m 14.001909,24.5 c -0.026,0.2758 0.2232,0.5 0.5,0.5 h 1.998 c 0.2768,0 0.5,-0.223 0.5,-0.5 V 16 8.5 c 0,-0.277 -0.2232,-0.5 -0.5,-0.5 h -1.998 c -0.2768,0 -0.5263,0.2242 -0.5,0.5 V 16 Z"/>
 <path id="path882" style="color:#000000;font-style:normal;font-variant:normal;font-weight:normal;font-stretch:normal;font-size:medium;line-height:normal;font-family:sans-serif;font-variant-ligatures:normal;font-variant-position:normal;font-variant-caps:normal;font-variant-numeric:normal;font-variant-alternates:normal;font-feature-settings:normal;text-indent:0;text-align:start;text-decoration:none;text-decoration-line:none;text-decoration-style:solid;text-decoration-color:#000000;letter-spacing:normal;word-spacing:normal;text-transform:none;writing-mode:lr-tb;direction:ltr;text-orientation:mixed;dominant-baseline:auto;baseline-shift:baseline;text-anchor:start;white-space:normal;shape-padding:0;clip-rule:nonzero;display:inline;overflow:visible;visibility:visible;opacity:0.05;isolation:auto;mix-blend-mode:normal;color-interpolation:sRGB;color-interpolation-filters:linearRGB;solid-color:#000000;solid-opacity:1;vector-effect:none;fill:#010101;fill-opacity:1;fill-rule:nonzero;stroke:none;stroke-width:2;stroke-linecap:round;stroke-linejoin:round;stroke-miterlimit:4;stroke-dasharray:none;stroke-dashoffset:0;stroke-opacity:1;paint-order:normal;color-rendering:auto;image-rendering:auto;shape-rendering:auto;text-rendering:auto;enable-background:accumulate" d="m 14.001909,24.5 c -0.026,0.2758 0.2232,0.5 0.5,0.5 h 1.998 c 0.2768,0 0.5,-0.223 0.5,-0.5 V 16 8.5 c 0,-0.277 -0.2232,-0.5 -0.5,-0.5 h -1.998 c -0.2768,0 -0.5263,0.2242 -0.5,0.5 V 16 Z m 1,-0.5 V 16 9 h 0.998 v 7 8 z"/>
 <path id="path840" style="fill:#526d78;fill-opacity:1;stroke-width:0.26513442" d="m 19.127299,20.4509 c 0.2822,0.5197 0.9345,0.7037 1.4449,0.4076 l 5.9027,-3.4275 c 0.6998,-0.4062 0.7002,-1.4214 7e-4,-1.8272 l -5.8756,-3.4691 c -0.7027,-0.4014 -1.6002,0.1462 -1.6,0.959 v 6.852 c 6e-4,0.1763 0.044,0.3506 0.129,0.5054 z"/>
 <path id="path884" style="color:#000000;font-style:normal;font-variant:normal;font-weight:normal;font-stretch:normal;font-size:medium;line-height:normal;font-family:sans-serif;font-variant-ligatures:normal;font-variant-position:normal;font-variant-caps:normal;font-variant-numeric:normal;font-variant-alternates:normal;font-feature-settings:normal;text-indent:0;text-align:start;text-decoration:none;text-decoration-line:none;text-decoration-style:solid;text-decoration-color:#000000;letter-spacing:normal;word-spacing:normal;text-transform:none;writing-mode:lr-tb;direction:ltr;text-orientation:mixed;dominant-baseline:auto;baseline-shift:baseline;text-anchor:start;white-space:normal;shape-padding:0;clip-rule:nonzero;display:inline;overflow:visible;visibility:visible;opacity:0.05;isolation:auto;mix-blend-mode:normal;color-interpolation:sRGB;color-interpolation-filters:linearRGB;solid-color:#000000;solid-opacity:1;vector-effect:none;fill:#010101;fill-opacity:1;fill-rule:nonzero;stroke:none;stroke-width:2;stroke-linecap:butt;stroke-linejoin:round;stroke-miterlimit:4;stroke-dasharray:none;stroke-dashoffset:0;stroke-opacity:1;color-rendering:auto;image-rendering:auto;shape-rendering:auto;text-rendering:auto;enable-background:accumulate" d="m 18.999999,19.9453 c 6e-4,0.1764 0.044,0.3511 0.1289,0.5059 v 0 c 0.2822,0.5197 0.9349,0.7043 1.4453,0.4082 l 5.9024,-3.4278 c 0.6998,-0.4062 0.7014,-1.4223 0,-1.8281 l -5.877,-3.4687 c -0.7027,-0.4014 -1.5998,0.1461 -1.5996,0.959 z m 1,0 v -6.8515 c 0,-0.077 0.061,-0.1151 0.1055,-0.09 l 5.8632,3.4609 a 1.0001,1.0001 0 0 0 0.01,0 c 0.073,0.043 0.074,0.054 0,0.098 l -5.9023,3.4277 c -0.034,0.02 -0.042,0.016 -0.061,-0.019 a 1.0001,1.0001 0 0 0 0,-0.01 c 0,0 2e-4,-0.012 -0.01,-0.023 z"/>
 <path id="path852" style="fill:#526d78;fill-opacity:1;stroke-width:0.26513442" d="m 11.874687,20.4509 c -0.2822,0.5197 -0.9345,0.7037 -1.4449,0.4076 l -5.9027,-3.4275 c -0.6998,-0.4062 -0.7002,-1.4214 -7e-4,-1.8272 l 5.8756,-3.4691 c 0.7027,-0.4014 1.6002,0.1462 1.6,0.959 v 6.852 c -6e-4,0.1763 -0.044,0.3506 -0.129,0.5054 z"/>
 <path id="path854" style="color:#000000;font-style:normal;font-variant:normal;font-weight:normal;font-stretch:normal;font-size:medium;line-height:normal;font-family:sans-serif;font-variant-ligatures:normal;font-variant-position:normal;font-variant-caps:normal;font-variant-numeric:normal;font-variant-alternates:normal;font-feature-settings:normal;text-indent:0;text-align:start;text-decoration:none;text-decoration-line:none;text-decoration-style:solid;text-decoration-color:#000000;letter-spacing:normal;word-spacing:normal;text-transform:none;writing-mode:lr-tb;direction:ltr;text-orientation:mixed;dominant-baseline:auto;baseline-shift:baseline;text-anchor:start;white-space:normal;shape-padding:0;clip-rule:nonzero;display:inline;overflow:visible;visibility:visible;opacity:0.05;isolation:auto;mix-blend-mode:normal;color-interpolation:sRGB;color-interpolation-filters:linearRGB;solid-color:#000000;solid-opacity:1;vector-effect:none;fill:#010101;fill-opacity:1;fill-rule:nonzero;stroke:none;stroke-width:2;stroke-linecap:butt;stroke-linejoin:round;stroke-miterlimit:4;stroke-dasharray:none;stroke-dashoffset:0;stroke-opacity:1;color-rendering:auto;image-rendering:auto;shape-rendering:auto;text-rendering:auto;enable-background:accumulate" d="m 12.001987,19.9453 c -6e-4,0.1764 -0.044,0.3511 -0.1289,0.5059 v 0 c -0.2822,0.5197 -0.9349,0.7043 -1.4453,0.4082 l -5.9024,-3.4278 c -0.6998,-0.4062 -0.7014,-1.4223 0,-1.8281 l 5.877,-3.4687 c 0.7027,-0.4014 1.5998,0.1461 1.5996,0.959 z m -1,0 v -6.8515 c 0,-0.077 -0.061,-0.1151 -0.1055,-0.09 l -5.8632,3.4609 a 1.0001,1.0001 0 0 1 -0.01,0 c -0.073,0.043 -0.074,0.054 0,0.098 l 5.9023,3.4277 c 0.034,0.02 0.042,0.016 0.061,-0.019 a 1.0001,1.0001 0 0 1 0,-0.01 c 0,0 -2e-4,-0.012 0.01,-0.023 z"/>
</svg>
